flaticon/user-interface/search-engine.svg

<svg xmlns="http://www.w3.org/2000/svg" width="32" height="32" viewBox="0 0 24 24">
    <path d="M2.800781 1.199219C1.917969 1.199219 1.199219 1.917969 1.199219 2.800781 1.199219 3.683594 1.917969 4.398438 2.800781 4.398438 3.683594 4.398438 4.398438 3.683594 4.398438 2.800781 4.398438 1.917969 3.683594 1.199219 2.800781 1.199219zM2.800781 3.601562C2.359375 3.601562 2 3.242188 2 2.800781 2 2.359375 2.359375 2 2.800781 2 3.242188 2 3.601562 2.359375 3.601562 2.800781 3.601562 3.242188 3.242188 3.601562 2.800781 3.601562zM6.398438 1.199219C5.519531 1.199219 4.800781 1.917969 4.800781 2.800781 4.800781 3.683594 5.519531 4.398438 6.398438 4.398438 7.28125 4.398438 8 3.683594 8 2.800781 8 1.917969 7.28125 1.199219 6.398438 1.199219zM6.398438 3.601562C5.957031 3.601562 5.601562 3.242188 5.601562 2.800781 5.601562 2.359375 5.957031 2 6.398438 2 6.839844 2 7.199219 2.359375 7.199219 2.800781 7.199219 3.242188 6.839844 3.601562 6.398438 3.601562zM10 1.199219C9.117188 1.199219 8.398438 1.917969 8.398438 2.800781 8.398438 3.683594 9.117188 4.398438 10 4.398438 10.882812 4.398438 11.601562 3.683594 11.601562 2.800781 11.601562 1.917969 10.882812 1.199219 10 1.199219zM10 3.601562C9.558594 3.601562 9.199219 3.242188 9.199219 2.800781 9.199219 2.359375 9.558594 2 10 2 10.441406 2 10.800781 2.359375 10.800781 2.800781 10.800781 3.242188 10.441406 3.601562 10 3.601562zM10 3.601562"/>
    <path d="M 0 0 L 0 24 L 24 24 L 24 0 Z M 0.800781 0.800781 L 23.199219 0.800781 L 23.199219 4.800781 L 0.800781 4.800781 Z M 23.199219 23.199219 L 0.800781 23.199219 L 0.800781 5.601562 L 23.199219 5.601562 Z M 23.199219 23.199219"/>
    <path d="M19.199219 10L22 10 22 6.800781 2 6.800781 2 10zM19.199219 7.601562L21.199219 7.601562 21.199219 9.199219 19.199219 9.199219zM2.800781 9.199219L2.800781 7.601562 18.398438 7.601562 18.398438 9.199219zM2 14L14.800781 14C15.019531 14 15.199219 13.820312 15.199219 13.601562 15.199219 13.378906 15.019531 13.199219 14.800781 13.199219L2 13.199219C1.777344 13.199219 1.601562 13.378906 1.601562 13.601562 1.601562 13.820312 1.777344 14 2 14zM2 15.601562L14.800781 15.601562C15.019531 15.601562 15.199219 15.421875 15.199219 15.199219 15.199219 14.980469 15.019531 14.800781 14.800781 14.800781L2 14.800781C1.777344 14.800781 1.601562 14.980469 1.601562 15.199219 1.601562 15.421875 1.777344 15.601562 2 15.601562zM2 12.398438L10.800781 12.398438C11.019531 12.398438 11.199219 12.222656 11.199219 12 11.199219 11.777344 11.019531 11.601562 10.800781 11.601562L2 11.601562C1.777344 11.601562 1.601562 11.777344 1.601562 12 1.601562 12.222656 1.777344 12.398438 2 12.398438zM2 20L14.800781 20C15.019531 20 15.199219 19.820312 15.199219 19.601562 15.199219 19.378906 15.019531 19.199219 14.800781 19.199219L2 19.199219C1.777344 19.199219 1.601562 19.378906 1.601562 19.601562 1.601562 19.820312 1.777344 20 2 20zM14.800781 20.800781L2 20.800781C1.777344 20.800781 1.601562 20.980469 1.601562 21.199219 1.601562 21.421875 1.777344 21.601562 2 21.601562L14.800781 21.601562C15.019531 21.601562 15.199219 21.421875 15.199219 21.199219 15.199219 20.980469 15.019531 20.800781 14.800781 20.800781zM2 18.398438L10.800781 18.398438C11.019531 18.398438 11.199219 18.222656 11.199219 18 11.199219 17.777344 11.019531 17.601562 10.800781 17.601562L2 17.601562C1.777344 17.601562 1.601562 17.777344 1.601562 18 1.601562 18.222656 1.777344 18.398438 2 18.398438zM2 18.398438"/>
</svg>

<svg xmlns="http://www.w3.org/2000/svg" width="32" height="32" viewBox="0 0 24 24">
    <path d="M2.8 1.2c-.882 0-1.6.718-1.6 1.6a1.6 1.6 0 1 0 1.6-1.6zm0 2.402A.802.802 0 0 1 2.8 2a.802.802 0 0 1 0 1.602zm0 0M6.398 1.2A1.6 1.6 0 1 0 8 2.801c0-.884-.719-1.603-1.602-1.603zm0 2.402a.799.799 0 0 1-.796-.801.799.799 0 1 1 1.597 0c0 .441-.36.8-.8.8zm0 0M10 1.2c-.883 0-1.602.718-1.602 1.6A1.6 1.6 0 0 0 10 4.399a1.6 1.6 0 0 0 1.602-1.597c0-.883-.72-1.602-1.602-1.602zm0 2.402A.802.802 0 0 1 10 2a.802.802 0 0 1 0 1.602zm0 0"/>
    <path d="M0 0v24h24V0zm.8.8h22.4v4H.8zm22.4 22.4H.8V5.601h22.4zm0 0"/>
    <path d="M19.2 10H22V6.8H2V10zm0-2.398h2v1.597h-2zM2.8 9.199V7.602h15.598v1.597zm0 0M2 14h12.8a.4.4 0 0 0 0-.8H2a.398.398 0 0 0-.398.402c0 .218.175.398.398.398zm0 0M2 15.602h12.8a.401.401 0 0 0 0-.801H2a.398.398 0 0 0-.398.398c0 .223.175.403.398.403zm0 0M2 12.398h8.8a.398.398 0 1 0 0-.796H2a.395.395 0 0 0-.398.398c0 .223.175.398.398.398zm0 0M2 20h12.8a.4.4 0 0 0 0-.8H2a.398.398 0 0 0-.398.402c0 .218.175.398.398.398zm0 0M14.8 20.8H2a.398.398 0 0 0-.398.4c0 .222.175.402.398.402h12.8a.401.401 0 0 0 0-.801zm0 0M2 18.398h8.8a.398.398 0 1 0 0-.796H2a.395.395 0 0 0-.398.398c0 .223.175.398.398.398zm0 0"/>
</svg>
